apps/site/public/icons/technologies/bun.svg

<svg width="50" height="48" viewBox="0 0 50 48" fill="none" xmlns="http://www.w3.org/2000/svg">
<g clip-path="url(#clip0_6114_39663)">
<mask id="mask0_6114_39663" style="mask-type:luminance" maskUnits="userSpaceOnUse" x="0" y="2" width="50" height="44">
<path d="M49.8678 2.18283H0V45.8172H49.8678V2.18283Z" fill="white"/>
</mask>
<g mask="url(#mask0_6114_39663)">
<path d="M44.314 15.1112C44.2142 15.0052 44.1083 14.8993 44.0023 14.7995C43.8963 14.6998 43.7966 14.5876 43.6906 14.4878C43.5847 14.3881 43.4849 14.2759 43.379 14.1762C43.273 14.0764 43.1733 13.9642 43.0673 13.8645C42.9613 13.7648 42.8616 13.6526 42.7556 13.5528C42.6496 13.4531 42.5499 13.3409 42.4439 13.2411C42.338 13.1414 42.2382 13.0292 42.1323 12.9295C45.2242 15.9682 46.9955 20.1019 47.063 24.4365C47.063 34.7653 36.5782 43.1681 23.6874 43.1681C16.469 43.1681 10.0112 40.5313 5.71631 36.3985L6.02798 36.7102L6.33964 37.0219L6.65132 37.3335L6.96299 37.6452L7.27467 37.9569L7.58634 38.2686L7.89801 38.5802C12.1866 42.8876 18.7879 45.6615 26.1808 45.6615C39.0716 45.6615 49.5563 37.2587 49.5563 26.961C49.5563 22.5602 47.6614 18.39 44.314 15.1112Z" fill="#161D2B"/>
<path d="M45.5045 24.4364C45.5045 33.9175 35.7366 41.6034 23.6873 41.6034C11.638 41.6034 1.87012 33.9175 1.87012 24.4364C1.87012 18.5582 5.6102 13.3657 11.3575 10.2864C17.1047 7.20703 20.6828 4.05289 23.6873 4.05289C26.6918 4.05289 29.26 6.62731 36.0171 10.2864C41.7644 13.3657 45.5045 18.5582 45.5045 24.4364Z" fill="#FBF0DF"/>
<path d="M45.5045 24.4363C45.5014 23.2183 45.3337 22.0063 45.0058 20.8333C43.3041 41.5908 17.9837 42.5882 8.02881 36.3796C12.5038 39.8482 18.0261 41.6904 23.6873 41.6033C35.7179 41.6033 45.5045 33.9049 45.5045 24.4363Z" fill="#F6DECE"/>
<path d="M15.2908 9.14564C18.0772 7.47507 21.7798 4.33963 25.4202 4.33339C24.8602 4.15237 24.2759 4.05779 23.6873 4.05289C22.1788 4.05289 20.5705 4.83207 18.5447 6.00397C17.8403 6.41537 17.111 6.87042 16.338 7.34416C14.8856 8.24178 13.2213 9.25784 11.3512 10.2739C5.41696 13.4841 1.87012 18.7764 1.87012 24.4364C1.87012 24.6857 1.87012 24.935 1.87012 25.1781C5.6476 11.8323 12.5107 10.8162 15.2908 9.14564Z" fill="#FFFEFC"/>
<path fill-rule="evenodd" clip-rule="evenodd" d="M21.892 5.62997C21.9007 7.10183 21.5917 8.55824 20.986 9.89975C20.3804 11.2413 19.4923 12.4362 18.3826 13.4031C18.208 13.5589 18.3452 13.8581 18.5696 13.7709C20.6702 12.9543 23.5065 10.5108 22.3097 5.5801C22.2598 5.29959 21.892 5.37439 21.892 5.62997ZM23.307 5.62997C24.0697 6.87444 24.5543 8.26912 24.7275 9.71842C24.9007 11.1677 24.7585 12.6373 24.3106 14.0264C24.2358 14.2446 24.5038 14.4316 24.6534 14.2508C26.0186 12.5055 27.2092 9.03965 23.6436 5.29959C23.4628 5.13752 23.1823 5.38686 23.307 5.60503V5.62997ZM25.0274 5.524C26.2218 6.3696 27.2211 7.4615 27.9576 8.72605C28.6942 9.99063 29.1511 11.3985 29.2974 12.8545C29.2911 12.907 29.3052 12.9599 29.3368 13.0023C29.3684 13.0446 29.4152 13.0731 29.4673 13.0819C29.5194 13.0908 29.5729 13.0792 29.6167 13.0496C29.6605 13.02 29.6912 12.9748 29.7026 12.9231C30.276 10.7476 29.9519 7.03873 25.2332 5.11259C24.9838 5.01285 24.8217 5.34946 25.0274 5.49906V5.524ZM13.5204 12.0068C14.9412 11.5824 16.2566 10.8634 17.3812 9.89682C18.5056 8.93019 19.4139 7.73762 20.0469 6.39668C20.1591 6.17228 20.5144 6.25955 20.4583 6.50889C19.3799 11.4956 15.7707 12.5366 13.5267 12.3995C13.2898 12.4057 13.296 12.0754 13.5204 12.0068Z" fill="#CCBEA7"/>
<path d="M23.6875 43.1679C10.7967 43.1679 0.312012 34.7652 0.312012 24.4363C0.312012 18.2029 4.1643 12.387 10.6159 8.90252C12.486 7.90516 14.088 6.90157 15.5155 6.02265C16.3009 5.53644 17.0427 5.0814 17.7595 4.65752C19.9475 3.36096 21.8175 2.49451 23.6875 2.49451C25.5576 2.49451 27.1908 3.24252 29.2353 4.45182C29.8587 4.80713 30.482 5.1936 31.149 5.61748C32.7012 6.57743 34.4528 7.66206 36.7592 8.90252C43.2108 12.387 47.0631 18.1966 47.0631 24.4363C47.0631 34.7652 36.5784 43.1679 23.6875 43.1679ZM23.6875 4.05288C22.179 4.05288 20.5708 4.83206 18.5449 6.00395C17.8405 6.41536 17.1112 6.87041 16.3383 7.34415C14.8859 8.24177 13.2215 9.25783 11.3515 10.2739C5.41723 13.4841 1.87038 18.7763 1.87038 24.4363C1.87038 33.905 11.6569 41.6096 23.6875 41.6096C35.7182 41.6096 45.5047 33.905 45.5047 24.4363C45.5047 18.7763 41.9579 13.4841 36.0174 10.2864C33.6611 9.03966 31.8222 7.86776 30.3324 6.94521C29.653 6.52757 29.0296 6.14109 28.4624 5.79825C26.5737 4.67622 25.1961 4.05288 23.6875 4.05288Z" fill="#161D2B"/>
<path d="M28.0822 28.9867C27.8022 30.1336 27.1647 31.1617 26.262 31.9226C25.5843 32.5796 24.7069 32.9919 23.7686 33.0945C22.8021 33.0082 21.894 32.5948 21.1942 31.9226C20.3007 31.1581 19.6722 30.1304 19.3989 28.9867C19.3899 28.9187 19.3965 28.8496 19.4183 28.7847C19.44 28.7197 19.4764 28.6606 19.5245 28.6119C19.5726 28.5632 19.6313 28.5261 19.696 28.5036C19.7606 28.481 19.8296 28.4735 19.8976 28.4817H27.5897C27.6572 28.4745 27.7255 28.4827 27.7894 28.5058C27.8533 28.5288 27.9111 28.566 27.9585 28.6146C28.0059 28.6633 28.0417 28.722 28.0631 28.7864C28.0846 28.8508 28.091 28.9193 28.0822 28.9867Z" fill="#B71422"/>
<path d="M21.194 31.9721C21.8923 32.6447 22.7972 33.062 23.7622 33.1565C24.725 33.0606 25.6274 32.6434 26.3242 31.9721C26.547 31.7644 26.7553 31.5415 26.9475 31.3051C26.5635 30.8695 26.0945 30.517 25.5692 30.2694C25.0439 30.0217 24.4735 29.8842 23.8931 29.8652C23.2721 29.8799 22.6639 30.0453 22.1209 30.3472C21.5781 30.6491 21.1166 31.0784 20.7764 31.5981C20.9197 31.729 21.0444 31.8537 21.194 31.9721Z" fill="#FF6164"/>
<path d="M21.2937 31.4797C21.6027 31.0802 21.9983 30.756 22.4507 30.5314C22.903 30.3068 23.4005 30.1877 23.9055 30.1831C24.839 30.2106 25.7284 30.5864 26.3989 31.2366C26.5423 31.0807 26.6794 30.9187 26.8103 30.7566C26.0173 30.0013 24.9693 29.5719 23.8743 29.5535C23.2891 29.5586 22.7124 29.6931 22.1854 29.9474C21.6583 30.2018 21.1941 30.5696 20.8262 31.0246C20.9735 31.1848 21.1296 31.3367 21.2937 31.4797Z" fill="#161D2B"/>
<path d="M23.7437 33.4684C22.7049 33.3774 21.7274 32.9381 20.9698 32.2217C20.0048 31.4056 19.3257 30.3027 19.0312 29.0738C19.01 28.9644 19.0136 28.8516 19.0416 28.7438C19.0697 28.636 19.1215 28.5357 19.1932 28.4504C19.2786 28.3473 19.3865 28.265 19.5086 28.2099C19.6306 28.1548 19.7637 28.1284 19.8976 28.1325H27.5897C27.7234 28.1297 27.856 28.1568 27.9778 28.2118C28.0997 28.2668 28.2078 28.3483 28.2941 28.4504C28.3651 28.536 28.416 28.6365 28.443 28.7444C28.47 28.8523 28.4723 28.9648 28.4499 29.0738C28.1554 30.3027 27.4762 31.4056 26.5113 32.2217C25.7553 32.9368 24.7802 33.376 23.7437 33.4684ZM19.8976 28.8556C19.7979 28.8556 19.7729 28.8993 19.7667 28.9117C20.0302 29.9775 20.6262 30.9316 21.4685 31.6358C22.0843 32.2425 22.8849 32.6264 23.7437 32.7266C24.6001 32.6275 25.3999 32.2484 26.0189 31.6482C26.8584 30.9428 27.4522 29.9889 27.7144 28.9242C27.7007 28.9042 27.6819 28.8885 27.6599 28.8786C27.6379 28.8687 27.6136 28.865 27.5897 28.8681L19.8976 28.8556Z" fill="#161D2B"/>
<path d="M33.1749 29.3734C35.1889 29.3734 36.8215 28.4134 36.8215 27.2291C36.8215 26.0448 35.1889 25.0847 33.1749 25.0847C31.161 25.0847 29.5283 26.0448 29.5283 27.2291C29.5283 28.4134 31.161 29.3734 33.1749 29.3734Z" fill="#FEBBD0"/>
<path d="M14.3063 29.3734C16.3202 29.3734 17.9528 28.4134 17.9528 27.2291C17.9528 26.0448 16.3202 25.0847 14.3063 25.0847C12.2923 25.0847 10.6597 26.0448 10.6597 27.2291C10.6597 28.4134 12.2923 29.3734 14.3063 29.3734Z" fill="#FEBBD0"/>
<path fill-rule="evenodd" clip-rule="evenodd" d="M16.0202 26.3689C16.6998 26.3701 17.3645 26.1698 17.9301 25.7931C18.4957 25.4165 18.9369 24.8804 19.1978 24.253C19.4588 23.6255 19.5277 22.9347 19.3958 22.2681C19.264 21.6014 18.9374 20.9888 18.4573 20.5078C17.9772 20.0269 17.3652 19.6991 16.6988 19.5661C16.0324 19.4331 15.3414 19.5007 14.7135 19.7604C14.0855 20.0203 13.5488 20.4605 13.1711 21.0254C12.7934 21.5904 12.5918 22.2547 12.5918 22.9343C12.5918 23.8441 12.9528 24.7168 13.5956 25.3607C14.2384 26.0046 15.1104 26.3672 16.0202 26.3689ZM31.4605 26.3689C32.1409 26.3739 32.8073 26.1766 33.3755 25.8022C33.9436 25.4279 34.3876 24.8932 34.6514 24.266C34.9152 23.6389 34.9868 22.9475 34.8572 22.2796C34.7274 21.6117 34.4023 20.9974 33.9229 20.5146C33.4437 20.0317 32.8317 19.7021 32.1647 19.5675C31.4978 19.433 30.806 19.4995 30.1769 19.7588C29.5479 20.018 29.01 20.4582 28.6314 21.0235C28.2529 21.5889 28.0508 22.2539 28.0508 22.9343C28.0491 23.8414 28.4071 24.7122 29.0462 25.3559C29.6852 25.9997 30.5534 26.3639 31.4605 26.3689Z" fill="#161D2B"/>
<path fill-rule="evenodd" clip-rule="evenodd" d="M14.9609 23.1522C15.2163 23.1535 15.4664 23.0788 15.6794 22.9378C15.8924 22.7967 16.0588 22.5957 16.1574 22.36C16.256 22.1243 16.2825 21.8647 16.2334 21.614C16.1843 21.3633 16.0619 21.1328 15.8817 20.9517C15.7015 20.7706 15.4716 20.6471 15.2211 20.5968C14.9706 20.5465 14.7109 20.5717 14.4748 20.6692C14.2386 20.7667 14.0367 20.9321 13.8946 21.1444C13.7526 21.3567 13.6768 21.6064 13.6768 21.8619C13.6768 22.203 13.8118 22.5303 14.0524 22.7721C14.2931 23.0139 14.6197 23.1506 14.9609 23.1522ZM30.4012 23.1522C30.6566 23.1535 30.9067 23.0788 31.1197 22.9378C31.3327 22.7967 31.4991 22.5957 31.5977 22.36C31.6963 22.1243 31.7228 21.8647 31.6737 21.614C31.6246 21.3633 31.5022 21.1328 31.322 20.9517C31.1418 20.7706 30.9119 20.6471 30.6614 20.5968C30.411 20.5465 30.1512 20.5717 29.9151 20.6692C29.6789 20.7667 29.477 20.9321 29.3349 21.1444C29.1929 21.3567 29.1171 21.6064 29.1171 21.8619C29.117 22.2009 29.2504 22.5263 29.4883 22.7678C29.7263 23.0092 30.0497 23.1473 30.3887 23.1522H30.4012Z" fill="white"/>
</g>
</g>
<defs>
<clipPath id="clip0_6114_39663">
<rect width="49.8678" height="43.6343" fill="white" transform="translate(0 2.18283)"/>
</clipPath>
</defs>
</svg>

<svg xmlns="http://www.w3.org/2000/svg" width="50" height="48" fill="none" viewBox="0 0 50 48"><g clip-path="url(#a)"><mask id="b" width="50" height="44" x="0" y="2" maskUnits="userSpaceOnUse" style="mask-type:luminance"><path fill="#fff" d="M49.868 2.183H0v43.634h49.868z"/></mask><g mask="url(#b)"><path fill="#161d2b" d="M44.314 15.111a7 7 0 0 0-.312-.312c-.106-.1-.205-.211-.311-.311s-.206-.212-.312-.312-.206-.212-.312-.312-.205-.211-.311-.311-.206-.212-.312-.312-.206-.212-.312-.311a16.5 16.5 0 0 1 4.931 11.506c0 10.33-10.485 18.732-23.376 18.732-7.218 0-13.676-2.637-17.97-6.77l.311.312.312.312.311.312.312.311.312.312.311.312.312.311c4.289 4.308 10.89 7.081 18.283 7.081 12.89 0 23.375-8.402 23.375-18.7 0-4.4-1.895-8.571-5.242-11.85"/><path fill="#fbf0df" d="M45.505 24.436c0 9.481-9.768 17.167-21.818 17.167-12.049 0-21.817-7.686-21.817-17.167 0-5.878 3.74-11.07 9.488-14.15s9.325-6.233 12.33-6.233c3.004 0 5.572 2.574 12.33 6.233 5.746 3.08 9.487 8.272 9.487 14.15"/><path fill="#f6dece" d="M45.505 24.436a13.5 13.5 0 0 0-.5-3.603C43.306 41.591 17.985 42.588 8.03 36.38a24.93 24.93 0 0 0 15.658 5.223c12.03 0 21.818-7.698 21.818-17.167"/><path fill="#fffefc" d="M15.29 9.146c2.787-1.67 6.49-4.806 10.13-4.813a5.8 5.8 0 0 0-1.733-.28c-1.508 0-3.117.78-5.142 1.951-.705.411-1.434.866-2.207 1.34-1.452.898-3.117 1.914-4.987 2.93-5.934 3.21-9.48 8.502-9.48 14.162v.742C5.647 11.832 12.51 10.816 15.29 9.146"/><path fill="#ccbea7" fill-rule="evenodd" d="M21.892 5.63a10.23 10.23 0 0 1-3.51 7.773c-.174.156-.037.455.188.368 2.1-.817 4.936-3.26 3.74-8.19-.05-.281-.418-.207-.418.049m1.415 0a10.12 10.12 0 0 1 1.004 8.396c-.075.219.193.406.342.225 1.366-1.745 2.556-5.211-1.01-8.951-.18-.162-.46.087-.336.305zm1.72-.106a10.24 10.24 0 0 1 4.27 7.33.206.206 0 0 0 .406.07c.573-2.176.249-5.885-4.47-7.811-.25-.1-.411.236-.206.386zM13.52 12.007a10.56 10.56 0 0 0 6.527-5.61c.112-.225.467-.137.411.112-1.078 4.987-4.687 6.028-6.931 5.89-.237.007-.231-.324-.007-.392" clip-rule="evenodd"/><path fill="#161d2b" d="M23.688 43.168C10.797 43.168.311 34.765.311 24.436c0-6.233 3.852-12.049 10.304-15.533 1.87-.998 3.472-2.001 4.9-2.88.785-.487 1.527-.942 2.243-1.365 2.189-1.297 4.058-2.163 5.929-2.163 1.87 0 3.503.748 5.547 1.957a47 47 0 0 1 1.914 1.165c1.552.96 3.304 2.045 5.61 3.286 6.452 3.484 10.304 9.294 10.304 15.533 0 10.33-10.485 18.732-23.376 18.732m0-39.115c-1.509 0-3.117.78-5.143 1.95-.705.412-1.434.867-2.207 1.341-1.452.898-3.117 1.914-4.987 2.93-5.934 3.21-9.48 8.502-9.48 14.162 0 9.469 9.786 17.174 21.817 17.174 12.03 0 21.817-7.705 21.817-17.174 0-5.66-3.547-10.952-9.488-14.15-2.356-1.246-4.195-2.418-5.685-3.34-.679-.418-1.302-.805-1.87-1.148-1.888-1.122-3.266-1.745-4.774-1.745"/><path fill="#b71422" d="M28.082 28.987a5.57 5.57 0 0 1-1.82 2.936 4.25 4.25 0 0 1-2.493 1.171 4.26 4.26 0 0 1-2.575-1.171 5.57 5.57 0 0 1-1.795-2.936.45.45 0 0 1 .499-.505h7.692a.448.448 0 0 1 .492.505"/><path fill="#ff6164" d="M21.194 31.972a4.3 4.3 0 0 0 2.568 1.185 4.3 4.3 0 0 0 2.562-1.185 7 7 0 0 0 .624-.667 4.26 4.26 0 0 0-3.055-1.44 3.83 3.83 0 0 0-3.117 1.733c.144.131.268.256.418.374"/><path fill="#161d2b" d="M21.294 31.48a3.34 3.34 0 0 1 2.611-1.297 3.74 3.74 0 0 1 2.494 1.054q.215-.235.411-.48a4.36 4.36 0 0 0-2.936-1.204 3.97 3.97 0 0 0-3.048 1.472q.222.24.468.455"/><path fill="#161d2b" d="M23.744 33.468a4.63 4.63 0 0 1-2.774-1.246 5.93 5.93 0 0 1-1.939-3.148.75.75 0 0 1 .162-.624.88.88 0 0 1 .705-.317h7.692a.9.9 0 0 1 .704.317.74.74 0 0 1 .156.624 5.93 5.93 0 0 1-1.939 3.148 4.63 4.63 0 0 1-2.767 1.246m-3.846-4.612c-.1 0-.125.043-.131.056a5.17 5.17 0 0 0 1.701 2.724c.616.607 1.417.99 2.276 1.09a3.9 3.9 0 0 0 2.275-1.078 5.17 5.17 0 0 0 1.695-2.724.13.13 0 0 0-.124-.056z"/><path fill="#febbd0" d="M33.175 29.373c2.014 0 3.647-.96 3.647-2.144s-1.633-2.144-3.647-2.144-3.647.96-3.647 2.144 1.633 2.144 3.647 2.144m-18.869 0c2.014 0 3.647-.96 3.647-2.144s-1.633-2.144-3.647-2.144-3.646.96-3.646 2.144 1.632 2.144 3.646 2.144"/><path fill="#161d2b" fill-rule="evenodd" d="M16.02 26.369a3.434 3.434 0 1 0 .013-6.869 3.434 3.434 0 0 0-.013 6.869m15.44 0a3.434 3.434 0 1 0-3.41-3.435 3.43 3.43 0 0 0 3.41 3.435" clip-rule="evenodd"/><path fill="#fff" fill-rule="evenodd" d="M14.96 23.152a1.29 1.29 0 1 0 .014-2.58 1.29 1.29 0 0 0-.013 2.58m15.441 0a1.29 1.29 0 1 0-.012 0z" clip-rule="evenodd"/></g></g><defs><clipPath id="a"><path fill="#fff" d="M0 2.183h49.868v43.634H0z"/></clipPath></defs></svg>
